X:125
T:Reels simple chords 414
M:3/4
L:1/8
K:Em
[E2E,2G,2B,2]>F2 G2 | F2 [E2E,2G,2B,2] D2 | B4 [B2D,2F,2A,2] | A2 A2 GA | [B2D,2F,2A,2] A2 A2 |
B2 [E2E,2G,2B,2]>F2 | G2 F2 [E2E,2G,2B,2] | D2 B2>A2 | [G2E,2G,2B,2] E2 F2 |
D2 [E4E,4G,4B,4] | E4 [E3E,3G,3B,3] |F G2 F2 | [E2E,2G,2B,2] D2 B4 |
[B2D,2F,2A,2] A2 | A2 GA [B2D,2F,2A,2] | A2 A2 B2 | [E2E,2G,2B,2]>F2 G2 |
F2 [E2E,2G,2B,2] D2 | B2>A2 [G2E,2G,2B,2] | E2 F2 D2 | [E4E,4G,4B,4] E4 |
[G2G,2B,2D2]>A2 | B2 gf [e2G,2B,2D2] | d2 B4 | [B2D,2F,2A,2] A2 A2 |
GA [B2D,2F,2A,2] A2 | A2 B2 [G3G,3B,3D3] |A B2 gf | [e2G,2B,2D2] d2 B3 |
A [G2E,2G,2B,2] E2 | F2 D2 [E4E,4G,4B,4] | E4 | [G2G,2B,2D2]>A2 B2 |
gf [e2G,2B,2D2] d2 | B4 [B2D,2F,2A,2] | A2 A2 GA | [B2D,2F,2A,2] A2 A2 |
B2 [G2G,2B,2D2]>A2 | B2 gf [e2G,2B,2D2] | d2 B2>A2 | [G2E,2G,2B,2] E2 F2 |
D2 [E4E,4G,4B,4] | E4 |


